typesense.org/assets/images/typesense_logo.svg

<svg fill="none" height="56" viewBox="0 0 250 56" width="250" xmlns="http://www.w3.org/2000/svg"><g fill="#1035bc"><path d="m15.0736 15.8466c.1105.5522.1657 1.0859.1657 1.6013 0 .4785-.0552.9938-.1657 1.546l-7.01225-.0552v18.5521c0 1.546.71779 2.319 2.15335 2.319h4.1963c.2577.6258.3865 1.2516.3865 1.8773 0 .6258-.0368 1.0123-.1104 1.1595-1.6932.2209-3.4417.3313-5.24538.3313-3.57055 0-5.35583-1.5276-5.35583-4.5828v-19.6564l-3.920246.0552c-.1104293-.5522-.165644-1.0675-.165644-1.546 0-.5154.0552147-1.0491.165644-1.6013l3.920246.0552v-5.7975c0-.99387.14724-1.69325.44172-2.09816.29448-.44172.86503-.66258 1.71165-.66258h1.4908l.33129.33129v8.28225z"/><path d="m41.7915 16.1227-7.5644 25.8957c-1.3988 4.7485-2.8896 8.0982-4.4724 10.0491s-3.9571 2.9264-7.1227 2.9264c-1.6196 0-3.1104-.2393-4.4724-.7178-.1104-1.0307.1841-2.0246.8834-2.9816 1.1411.4049 2.3559.6073 3.6442.6073 1.9509 0 3.4417-.6625 4.4724-1.9877 1.0307-1.3251 1.9693-3.3865 2.816-6.184l.1656-.5522c-.9571-.0736-1.6932-.2945-2.2086-.6626-.4785-.3681-.8834-1.049-1.2147-2.0429l-7.7301-24.2945c1.1411-.4785 1.9509-.7178 2.4295-.7178 1.0675 0 1.7853.6442 2.1534 1.9325l4.3619 13.8589c.1473.4418.9939 3.3129 2.5399 8.6135.0736.2577.2577.3865.5521.3865l6.7362-24.4049c.4786-.1472 1.1043-.2208 1.8773-.2208.8099 0 1.4908.1104 2.043.3313z"/><path d="m52.4009 41.135v10.9325c0 .9938-.1472 1.6932-.4417 2.0981-.2945.4418-.8834.6626-1.7669.6626h-1.4908l-.3312-.3313v-38.4846l.3312-.3313h1.4356c.8835 0 1.4724.2392 1.7669.7178.3313.4417.4969 1.1779.4969 2.2086v.276c2.2086-2.4662 4.8405-3.6994 7.8957-3.6994 3.1289 0 5.4847 1.27 7.0675 3.8099 1.5828 2.503 2.3743 5.9816 2.3743 10.4356 0 2.1717-.2945 4.1226-.8835 5.8527-.5521 1.7301-1.3067 3.2025-2.2638 4.4172-.9202 1.1779-1.9877 2.0981-3.2024 2.7607-1.2148.6258-2.4663.9387-3.7546.9387-2.5399 0-4.951-.7546-7.2332-2.2638zm0-17.9448v14.1902c2.2454 1.6564 4.362 2.4846 6.3497 2.4846 1.9878 0 3.6258-.8834 4.9141-2.6503 1.2884-1.7668 1.9326-4.4356 1.9326-8.0061 0-1.7669-.1657-3.2945-.497-4.5828-.2945-1.3252-.6994-2.4111-1.2147-3.2577-.5153-.8834-1.1227-1.5276-1.8221-1.9325-.6626-.4417-1.3804-.6626-2.1534-.6626-1.4724 0-2.8711.3865-4.1963 1.1595-1.3251.773-2.4294 1.8589-3.3129 3.2577z"/><path d="m97.6973 30.6442h-17.1166c.1841 6.2576 2.5583 9.3865 7.1227 9.3865 2.5031 0 5.1718-.773 8.0061-2.319.8099.7361 1.3068 1.6748 1.4909 2.8159-3.0184 2.0614-6.405 3.092-10.1596 3.092-1.9141 0-3.5521-.3497-4.9141-1.049-1.3619-.7362-2.4846-1.7301-3.3681-2.9816-.8466-1.2884-1.4724-2.7976-1.8773-4.5277-.4049-1.73-.6073-3.6257-.6073-5.6871 0-2.0981.2392-4.0122.7178-5.7423.5153-1.7301 1.2515-3.2209 2.2085-4.4724.9571-1.2515 2.0982-2.227 3.4234-2.9264 1.3619-.6994 2.9079-1.0491 4.638-1.0491 1.6932 0 3.2025.3129 4.5276.9387 1.362.589 2.4847 1.4172 3.3681 2.4847.9203 1.0306 1.6196 2.2822 2.0982 3.7546.4785 1.4355.7178 2.9816.7178 4.638 0 .6626-.0369 1.3067-.1105 1.9325-.0368.589-.092 1.1595-.1656 1.7117zm-17.1166-3.1473h13.2516v-.7178c0-2.5398-.5338-4.5828-1.6013-6.1288s-2.6687-2.319-4.8037-2.319c-2.0981 0-3.7362.8282-4.9141 2.4847-1.1411 1.6564-1.7852 3.8834-1.9325 6.6809z"/><path d="m103.381 41.0245c.036-.8098.257-1.6932.662-2.6503.442-.9938.939-1.7668 1.491-2.319 2.908 1.5828 5.466 2.3743 7.675 2.3743 1.214 0 2.19-.2393 2.926-.7178.773-.4786 1.16-1.1227 1.16-1.9326 0-1.2883-.994-2.319-2.982-3.092l-3.092-1.1595c-4.638-1.6932-6.957-4.3988-6.957-8.1166 0-1.3251.239-2.503.718-3.5337.515-1.0675 1.214-1.9693 2.098-2.7055.92-.773 2.006-1.362 3.258-1.7669 1.251-.4049 2.65-.6074 4.196-.6074.699 0 1.472.0553 2.319.1657.883.1104 1.767.2761 2.65.4969.884.1841 1.73.4049 2.54.6626s1.509.5337 2.098.8282c0 .9203-.184 1.8773-.552 2.8712s-.865 1.73-1.491 2.2086c-2.908-1.2884-5.429-1.9325-7.564-1.9325-.957 0-1.712.2392-2.264.7178-.552.4417-.828 1.0306-.828 1.7668 0 1.1411.92 2.043 2.761 2.7055l3.368 1.2148c2.429.8466 4.233 2.0061 5.411 3.4785s1.767 3.184 1.767 5.135c0 2.6135-.976 4.7116-2.927 6.2944-1.951 1.5461-4.748 2.3191-8.392 2.3191-3.571 0-6.921-.9019-10.049-2.7056z"/><path d="m151.772 31.5828h-15.239c.111 2.0246.571 3.6258 1.38 4.8037.847 1.1411 2.301 1.7117 4.362 1.7117 2.135 0 4.583-.6258 7.344-1.8773 1.067 1.1042 1.748 2.5582 2.043 4.3619-2.945 2.0982-6.479 3.1473-10.601 3.1473-3.902 0-6.865-1.1964-8.89-3.589-1.988-2.4294-2.981-6.0184-2.981-10.7669 0-2.2086.257-4.1963.773-5.9632.515-1.8036 1.269-3.3312 2.263-4.5828.994-1.2883 2.209-2.2822 3.644-2.9816 1.436-.6994 3.074-1.0491 4.915-1.0491 1.877 0 3.533.2945 4.969.8835 1.436.5521 2.65 1.3619 3.644 2.4294.994 1.0307 1.73 2.2638 2.209 3.6994.515 1.4356.773 3 .773 4.6933 0 .9202-.056 1.8036-.166 2.6503-.11.8098-.258 1.6196-.442 2.4294zm-10.656-11.5951c-2.871 0-4.417 2.1718-4.638 6.5154h9.165v-.6626c0-1.7669-.368-3.1841-1.104-4.2515-.736-1.0675-1.877-1.6013-3.423-1.6013z"/><path d="m182.033 24.5153v12.0368c0 2.3559.386 4.1043 1.159 5.2454-1.178 1.0307-2.595 1.5461-4.251 1.5461-1.583 0-2.669-.3497-3.258-1.0491-.589-.7362-.884-1.8773-.884-3.4233v-12.8651c0-1.6564-.202-2.8159-.607-3.4785s-1.159-.9939-2.264-.9939c-1.951 0-3.773.8835-5.466 2.6504v18.773c-.552.1104-1.141.184-1.767.2208-.589.0368-1.196.0552-1.822.0552s-1.251-.0184-1.877-.0552c-.589-.0368-1.16-.1104-1.712-.2208v-27.3313l.331-.3865h2.761c2.062 0 3.35 1.1043 3.865 3.3128 2.687-2.319 5.356-3.4785 8.006-3.4785 2.651 0 4.602.8651 5.853 2.5951 1.288 1.6933 1.933 3.9755 1.933 6.8466z"/><path d="m187.825 41.0245c.036-.8098.257-1.6932.662-2.6503.442-.9938.939-1.7668 1.491-2.319 2.908 1.5828 5.466 2.3743 7.675 2.3743 1.214 0 2.19-.2393 2.926-.7178.773-.4786 1.16-1.1227 1.16-1.9326 0-1.2883-.994-2.319-2.982-3.092l-3.092-1.1595c-4.638-1.6932-6.957-4.3988-6.957-8.1166 0-1.3251.239-2.503.718-3.5337.515-1.0675 1.214-1.9693 2.098-2.7055.92-.773 2.006-1.362 3.258-1.7669 1.251-.4049 2.65-.6074 4.196-.6074.699 0 1.472.0553 2.319.1657.883.1104 1.767.2761 2.65.4969.884.1841 1.73.4049 2.54.6626s1.509.5337 2.098.8282c0 .9203-.184 1.8773-.552 2.8712s-.865 1.73-1.491 2.2086c-2.908-1.2884-5.429-1.9325-7.564-1.9325-.957 0-1.712.2392-2.264.7178-.552.4417-.828 1.0306-.828 1.7668 0 1.1411.92 2.043 2.761 2.7055l3.368 1.2148c2.429.8466 4.233 2.0061 5.411 3.4785s1.767 3.184 1.767 5.135c0 2.6135-.976 4.7116-2.927 6.2944-1.951 1.5461-4.748 2.3191-8.392 2.3191-3.571 0-6.921-.9019-10.049-2.7056z"/><path d="m236.216 31.5828h-15.239c.111 2.0246.571 3.6258 1.38 4.8037.847 1.1411 2.301 1.7117 4.362 1.7117 2.135 0 4.583-.6258 7.344-1.8773 1.067 1.1042 1.748 2.5582 2.043 4.3619-2.945 2.0982-6.479 3.1473-10.601 3.1473-3.902 0-6.865-1.1964-8.89-3.589-1.988-2.4294-2.981-6.0184-2.981-10.7669 0-2.2086.257-4.1963.773-5.9632.515-1.8036 1.269-3.3312 2.263-4.5828.994-1.2883 2.209-2.2822 3.645-2.9816 1.435-.6994 3.073-1.0491 4.914-1.0491 1.877 0 3.533.2945 4.969.8835 1.436.5521 2.65 1.3619 3.644 2.4294.994 1.0307 1.73 2.2638 2.209 3.6994.515 1.4356.773 3 .773 4.6933 0 .9202-.055 1.8036-.166 2.6503-.11.8098-.258 1.6196-.442 2.4294zm-10.656-11.5951c-2.871 0-4.417 2.1718-4.638 6.5154h9.166v-.6626c0-1.7669-.369-3.1841-1.105-4.2515-.736-1.0675-1.877-1.6013-3.423-1.6013z"/><path d="m244.777 50.6871v-50.521455c.552-.1104299 1.178-.165645 1.878-.165645.736 0 1.417.0552151 2.042.165645v50.521455c-.625.1104-1.306.1657-2.042.1657-.7 0-1.326-.0553-1.878-.1657z"/></g></svg>

<svg width="250" height="56" viewBox="0 0 250 56" fill="none" xmlns="http://www.w3.org/2000/svg">
<path d="M15.0736 15.8466C15.1841 16.3988 15.2393 16.9325 15.2393 17.4479C15.2393 17.9264 15.1841 18.4417 15.0736 18.9939L8.06135 18.9387V37.4908C8.06135 39.0368 8.77914 39.8098 10.2147 39.8098H14.411C14.6687 40.4356 14.7975 41.0614 14.7975 41.6871C14.7975 42.3129 14.7607 42.6994 14.6871 42.8466C12.9939 43.0675 11.2454 43.1779 9.44172 43.1779C5.87117 43.1779 4.08589 41.6503 4.08589 38.5951V18.9387L0.165644 18.9939C0.0552147 18.4417 0 17.9264 0 17.4479C0 16.9325 0.0552147 16.3988 0.165644 15.8466L4.08589 15.9018V10.1043C4.08589 9.11043 4.23313 8.41105 4.52761 8.00614C4.82209 7.56442 5.39264 7.34356 6.23926 7.34356H7.73006L8.06135 7.67485V15.9571L15.0736 15.8466Z" fill="#0300B0"/>
<path d="M41.7915 16.1227L34.2271 42.0184C32.8283 46.7669 31.3375 50.1166 29.7547 52.0675C28.1719 54.0184 25.7976 54.9939 22.632 54.9939C21.0124 54.9939 19.5216 54.7546 18.1596 54.2761C18.0492 53.2454 18.3437 52.2515 19.043 51.2945C20.1841 51.6994 21.3989 51.9018 22.6872 51.9018C24.6381 51.9018 26.1289 51.2393 27.1596 49.9141C28.1903 48.589 29.1289 46.5276 29.9756 43.7301L30.1412 43.1779C29.1841 43.1043 28.448 42.8834 27.9326 42.5153C27.4541 42.1472 27.0492 41.4663 26.7179 40.4724L18.9878 16.1779C20.1289 15.6994 20.9387 15.4601 21.4173 15.4601C22.4848 15.4601 23.2026 16.1043 23.5707 17.3926L27.9326 31.2515C28.0799 31.6933 28.9265 34.5644 30.4725 39.865C30.5461 40.1227 30.7302 40.2515 31.0246 40.2515L37.7608 15.8466C38.2394 15.6994 38.8651 15.6258 39.6381 15.6258C40.448 15.6258 41.1289 15.7362 41.6811 15.9571L41.7915 16.1227Z" fill="#0300B0"/>
<path d="M52.4009 41.135V52.0675C52.4009 53.0613 52.2537 53.7607 51.9592 54.1656C51.6647 54.6074 51.0758 54.8282 50.1923 54.8282H48.7015L48.3703 54.4969V16.0123L48.7015 15.681H50.1371C51.0206 15.681 51.6095 15.9202 51.904 16.3988C52.2353 16.8405 52.4009 17.5767 52.4009 18.6074V18.8834C54.6095 16.4172 57.2414 15.184 60.2966 15.184C63.4255 15.184 65.7813 16.454 67.3641 18.9939C68.9469 21.4969 69.7384 24.9755 69.7384 29.4295C69.7384 31.6012 69.4439 33.5521 68.8549 35.2822C68.3028 37.0123 67.5482 38.4847 66.5911 39.6994C65.6709 40.8773 64.6034 41.7975 63.3887 42.4601C62.1739 43.0859 60.9224 43.3988 59.6341 43.3988C57.0942 43.3988 54.6831 42.6442 52.4009 41.135ZM52.4009 23.1902V37.3804C54.6463 39.0368 56.7629 39.865 58.7506 39.865C60.7384 39.865 62.3764 38.9816 63.6647 37.2147C64.9531 35.4479 65.5973 32.7791 65.5973 29.2086C65.5973 27.4417 65.4316 25.9141 65.1003 24.6258C64.8058 23.3006 64.4009 22.2147 63.8856 21.3681C63.3703 20.4847 62.7629 19.8405 62.0635 19.4356C61.4009 18.9939 60.6831 18.773 59.9101 18.773C58.4377 18.773 57.039 19.1595 55.7138 19.9325C54.3887 20.7055 53.2844 21.7914 52.4009 23.1902Z" fill="#0300B0"/>
<path d="M97.6973 30.6442H80.5807C80.7648 36.9018 83.139 40.0307 87.7034 40.0307C90.2065 40.0307 92.8752 39.2577 95.7095 37.7117C96.5194 38.4478 97.0163 39.3865 97.2004 40.5276C94.182 42.589 90.7954 43.6196 87.0408 43.6196C85.1267 43.6196 83.4887 43.2699 82.1267 42.5706C80.7648 41.8344 79.6421 40.8405 78.7586 39.589C77.912 38.3006 77.2862 36.7914 76.8813 35.0613C76.4764 33.3313 76.274 31.4356 76.274 29.3742C76.274 27.2761 76.5132 25.362 76.9918 23.6319C77.5071 21.9018 78.2433 20.411 79.2003 19.1595C80.1574 17.908 81.2985 16.9325 82.6237 16.2331C83.9856 15.5337 85.5316 15.184 87.2617 15.184C88.9549 15.184 90.4642 15.4969 91.7893 16.1227C93.1513 16.7117 94.274 17.5399 95.1574 18.6074C96.0777 19.638 96.777 20.8896 97.2556 22.362C97.7341 23.7975 97.9734 25.3436 97.9734 27C97.9734 27.6626 97.9365 28.3067 97.8629 28.9325C97.8261 29.5215 97.7709 30.092 97.6973 30.6442ZM80.5807 27.4969H93.8323V26.7791C93.8323 24.2393 93.2985 22.1963 92.231 20.6503C91.1635 19.1043 89.5623 18.3313 87.4273 18.3313C85.3292 18.3313 83.6911 19.1595 82.5132 20.816C81.3721 22.4724 80.728 24.6994 80.5807 27.4969Z" fill="#0300B0"/>
<path d="M103.381 41.0245C103.417 40.2147 103.638 39.3313 104.043 38.3742C104.485 37.3804 104.982 36.6074 105.534 36.0552C108.442 37.638 111 38.4295 113.209 38.4295C114.423 38.4295 115.399 38.1902 116.135 37.7117C116.908 37.2331 117.295 36.589 117.295 35.7791C117.295 34.4908 116.301 33.4601 114.313 32.6871L111.221 31.5276C106.583 29.8344 104.264 27.1288 104.264 23.411C104.264 22.0859 104.503 20.908 104.982 19.8773C105.497 18.8098 106.196 17.908 107.08 17.1718C108 16.3988 109.086 15.8098 110.338 15.4049C111.589 15 112.988 14.7975 114.534 14.7975C115.233 14.7975 116.006 14.8528 116.853 14.9632C117.736 15.0736 118.62 15.2393 119.503 15.4601C120.387 15.6442 121.233 15.865 122.043 16.1227C122.853 16.3804 123.552 16.6564 124.141 16.9509C124.141 17.8712 123.957 18.8282 123.589 19.8221C123.221 20.816 122.724 21.5521 122.098 22.0307C119.19 20.7423 116.669 20.0982 114.534 20.0982C113.577 20.0982 112.822 20.3374 112.27 20.816C111.718 21.2577 111.442 21.8466 111.442 22.5828C111.442 23.7239 112.362 24.6258 114.203 25.2883L117.571 26.5031C120 27.3497 121.804 28.5092 122.982 29.9816C124.16 31.454 124.749 33.1656 124.749 35.1166C124.749 37.7301 123.773 39.8282 121.822 41.411C119.871 42.9571 117.074 43.7301 113.43 43.7301C109.859 43.7301 106.509 42.8282 103.381 41.0245Z" fill="#0300B0"/>
<path d="M151.772 31.5828H136.533C136.644 33.6074 137.104 35.2086 137.913 36.3865C138.76 37.5276 140.214 38.0982 142.275 38.0982C144.41 38.0982 146.858 37.4724 149.619 36.2209C150.686 37.3251 151.367 38.7791 151.662 40.5828C148.717 42.681 145.183 43.7301 141.061 43.7301C137.159 43.7301 134.196 42.5337 132.171 40.1411C130.183 37.7117 129.19 34.1227 129.19 29.3742C129.19 27.1656 129.447 25.1779 129.963 23.411C130.478 21.6074 131.232 20.0798 132.226 18.8282C133.22 17.5399 134.435 16.546 135.87 15.8466C137.306 15.1472 138.944 14.7975 140.785 14.7975C142.662 14.7975 144.318 15.092 145.754 15.681C147.19 16.2331 148.404 17.0429 149.398 18.1104C150.392 19.1411 151.128 20.3742 151.607 21.8098C152.122 23.2454 152.38 24.8098 152.38 26.5031C152.38 27.4233 152.324 28.3067 152.214 29.1534C152.104 29.9632 151.956 30.773 151.772 31.5828ZM141.116 19.9877C138.245 19.9877 136.699 22.1595 136.478 26.5031H145.643V25.8405C145.643 24.0736 145.275 22.6564 144.539 21.589C143.803 20.5215 142.662 19.9877 141.116 19.9877Z" fill="#0300B0"/>
<path d="M182.033 24.5153V36.5521C182.033 38.908 182.419 40.6564 183.192 41.7975C182.014 42.8282 180.597 43.3436 178.941 43.3436C177.358 43.3436 176.272 42.9939 175.683 42.2945C175.094 41.5583 174.799 40.4172 174.799 38.8712V26.0061C174.799 24.3497 174.597 23.1902 174.192 22.5276C173.787 21.865 173.033 21.5337 171.928 21.5337C169.977 21.5337 168.155 22.4172 166.462 24.1841V42.9571C165.91 43.0675 165.321 43.1411 164.695 43.1779C164.106 43.2147 163.499 43.2331 162.873 43.2331C162.247 43.2331 161.622 43.2147 160.996 43.1779C160.407 43.1411 159.836 43.0675 159.284 42.9571V15.6258L159.615 15.2393H162.376C164.438 15.2393 165.726 16.3436 166.241 18.5521C168.928 16.2331 171.597 15.0736 174.247 15.0736C176.898 15.0736 178.849 15.9387 180.1 17.6687C181.388 19.362 182.033 21.6442 182.033 24.5153Z" fill="#0300B0"/>
<path d="M187.825 41.0245C187.861 40.2147 188.082 39.3313 188.487 38.3742C188.929 37.3804 189.426 36.6074 189.978 36.0552C192.886 37.638 195.444 38.4295 197.653 38.4295C198.867 38.4295 199.843 38.1902 200.579 37.7117C201.352 37.2331 201.739 36.589 201.739 35.7791C201.739 34.4908 200.745 33.4601 198.757 32.6871L195.665 31.5276C191.027 29.8344 188.708 27.1288 188.708 23.411C188.708 22.0859 188.947 20.908 189.426 19.8773C189.941 18.8098 190.64 17.908 191.524 17.1718C192.444 16.3988 193.53 15.8098 194.782 15.4049C196.033 15 197.432 14.7975 198.978 14.7975C199.677 14.7975 200.45 14.8528 201.297 14.9632C202.18 15.0736 203.064 15.2393 203.947 15.4601C204.831 15.6442 205.677 15.865 206.487 16.1227C207.297 16.3804 207.996 16.6564 208.585 16.9509C208.585 17.8712 208.401 18.8282 208.033 19.8221C207.665 20.816 207.168 21.5521 206.542 22.0307C203.634 20.7423 201.113 20.0982 198.978 20.0982C198.021 20.0982 197.266 20.3374 196.714 20.816C196.162 21.2577 195.886 21.8466 195.886 22.5828C195.886 23.7239 196.806 24.6258 198.647 25.2883L202.015 26.5031C204.444 27.3497 206.248 28.5092 207.426 29.9816C208.604 31.454 209.193 33.1656 209.193 35.1166C209.193 37.7301 208.217 39.8282 206.266 41.411C204.315 42.9571 201.518 43.7301 197.874 43.7301C194.303 43.7301 190.953 42.8282 187.825 41.0245Z" fill="#0300B0"/>
<path d="M236.216 31.5828H220.977C221.088 33.6074 221.548 35.2086 222.357 36.3865C223.204 37.5276 224.658 38.0982 226.719 38.0982C228.854 38.0982 231.302 37.4724 234.063 36.2209C235.13 37.3251 235.811 38.7791 236.106 40.5828C233.161 42.681 229.627 43.7301 225.505 43.7301C221.603 43.7301 218.64 42.5337 216.615 40.1411C214.627 37.7117 213.634 34.1227 213.634 29.3742C213.634 27.1656 213.891 25.1779 214.407 23.411C214.922 21.6074 215.676 20.0798 216.67 18.8282C217.664 17.5399 218.879 16.546 220.315 15.8466C221.75 15.1472 223.388 14.7975 225.229 14.7975C227.106 14.7975 228.762 15.092 230.198 15.681C231.634 16.2331 232.848 17.0429 233.842 18.1104C234.836 19.1411 235.572 20.3742 236.051 21.8098C236.566 23.2454 236.824 24.8098 236.824 26.5031C236.824 27.4233 236.769 28.3067 236.658 29.1534C236.548 29.9632 236.4 30.773 236.216 31.5828ZM225.56 19.9877C222.689 19.9877 221.143 22.1595 220.922 26.5031H230.088V25.8405C230.088 24.0736 229.719 22.6564 228.983 21.589C228.247 20.5215 227.106 19.9877 225.56 19.9877Z" fill="#0300B0"/>
<path d="M244.777 50.6871V0.165645C245.329 0.0552151 245.955 0 246.655 0C247.391 0 248.072 0.0552151 248.697 0.165645V50.6871C248.072 50.7975 247.391 50.8528 246.655 50.8528C245.955 50.8528 245.329 50.7975 244.777 50.6871Z" fill="#0300B0"/>
</svg>
